X: 10
T: The New Mown Meadows
R: reel
S: https://thesession.org/tunes/2706
M: 4/4
L: 1/8
K: G	% ?
|:\
AD~D2 EDEG | AcBG AGEG | AD~D2 EDEF | G2 AG EG G2 |\
AD~D2 EDEG | AcBG AGEG | ~c3 A ~B3 G | ABGE G4 :|
|:\
Bddf (3efg dB | GABG AGEG | Bd~d2 efdB | G2 AG EG~G2 |\
Bddf (3efg dB | (3cBA BG AGEG | ~c3 A ~B3 G | ABGE G4 :|
